icons/amusement-park-11.svg

<?xml version="1.0" encoding="UTF-8" standalone="no"?>
<!-- Created with Inkscape (http://www.inkscape.org/) -->

<svg
   xmlns:dc="http://purl.org/dc/elements/1.1/"
   xmlns:cc="http://creativecommons.org/ns#"
   xmlns:rdf="http://www.w3.org/1999/02/22-rdf-syntax-ns#"
   xmlns:svg="http://www.w3.org/2000/svg"
   xmlns="http://www.w3.org/2000/svg"
   xmlns:sodipodi="http://sodipodi.sourceforge.net/DTD/sodipodi-0.dtd"
   xmlns:inkscape="http://www.inkscape.org/namespaces/inkscape"
   version="1.1"
   width="11"
   height="11"
   id="svg4619"
   inkscape:version="0.91 r13725"
   sodipodi:docname="amusement-park-11.svg"
   viewBox="0 0 11 11">
  <sodipodi:namedview
     pagecolor="#ffffff"
     bordercolor="#666666"
     borderopacity="1"
     objecttolerance="10"
     gridtolerance="10"
     guidetolerance="10"
     inkscape:pageopacity="0"
     inkscape:pageshadow="2"
     inkscape:window-width="1570"
     inkscape:window-height="998"
     id="namedview3359"
     inkscape:document-units="px"
     showgrid="false"
     inkscape:zoom="11.313708"
     inkscape:cx="8.654971"
     inkscape:cy="2.3343669"
     inkscape:current-layer="svg4619"
     inkscape:snap-bbox="true"
     inkscape:bbox-paths="true"
     inkscape:bbox-nodes="true"
     inkscape:snap-bbox-edge-midpoints="true"
     inkscape:snap-bbox-midpoints="true"
     inkscape:object-paths="true"
     inkscape:object-nodes="true"
     inkscape:snap-intersection-paths="true"
     inkscape:snap-smooth-nodes="true"
     inkscape:window-x="414"
     inkscape:window-y="0"
     inkscape:window-maximized="0"
     inkscape:snap-object-midpoints="false"
     inkscape:snap-center="true"
     inkscape:snap-nodes="true"
     showguides="false">
    <inkscape:grid
       type="xygrid"
       id="grid3333"
       spacingx="0.5"
       spacingy="0.5"
       color="#ff0000"
       opacity="0.1254902"
       empspacing="2" />
  </sodipodi:namedview>
  <defs
     id="defs4621">
    <inkscape:perspective
       sodipodi:type="inkscape:persp3d"
       inkscape:vp_x="0 : 7.5 : 1"
       inkscape:vp_y="0 : 1000 : 0"
       inkscape:vp_z="15 : 7.5 : 1"
       inkscape:persp3d-origin="7.5 : 5 : 1"
       id="perspective5108" />
  </defs>
  <metadata
     id="metadata4624">
    <rdf:RDF>
      <cc:Work
         rdf:about="">
        <dc:format>image/svg+xml</dc:format>
        <dc:type
           rdf:resource="http://purl.org/dc/dcmitype/StillImage" />
        <dc:title></dc:title>
      </cc:Work>
    </rdf:RDF>
  </metadata>
  <path
     style="color:#000000;font-style:normal;font-variant:normal;font-weight:normal;font-stretch:normal;font-size:medium;line-height:normal;font-family:sans-serif;text-indent:0;text-align:start;text-decoration:none;text-decoration-line:none;text-decoration-style:solid;text-decoration-color:#000000;letter-spacing:normal;word-spacing:normal;text-transform:none;direction:ltr;block-progression:tb;writing-mode:lr-tb;baseline-shift:baseline;text-anchor:start;white-space:normal;clip-rule:nonzero;display:inline;overflow:visible;visibility:visible;opacity:1;isolation:auto;mix-blend-mode:normal;color-interpolation:sRGB;color-interpolation-filters:linearRGB;solid-color:#000000;solid-opacity:1;fill:#000000;fill-opacity:1;fill-rule:nonzero;stroke:none;stroke-width:0.99999994;stroke-linecap:butt;stroke-linejoin:miter;stroke-miterlimit:4;stroke-dasharray:none;stroke-dashoffset:0;stroke-opacity:1;marker:none;color-rendering:auto;image-rendering:auto;shape-rendering:auto;text-rendering:auto;enable-background:accumulate"
     d="M 5.5 1 C 3.0206411 1 1.0000001 3.0206411 1 5.5 C 1 7.2919137 2.0626988 8.8316373 3.5839844 9.5546875 L 2.5 11 L 8.5 11 L 7.4160156 9.5546875 C 8.9373012 8.8316373 10 7.2919137 10 5.5 C 9.9999999 3.0206411 7.9793589 1 5.5 1 z M 5.375 2.0117188 L 5.375 4.0058594 A 1.4999999 1.4999999 0 0 0 4.53125 4.3554688 L 3.1191406 2.9433594 C 3.7146264 2.388833 4.5012587 2.0428109 5.375 2.0117188 z M 5.625 2.0117188 C 6.4987413 2.0428109 7.2853736 2.388833 7.8808594 2.9433594 L 6.46875 4.3554688 A 1.4999999 1.4999999 0 0 1 6.4667969 4.3535156 A 1.4999999 1.4999999 0 0 0 5.625 4.0058594 L 5.625 2.0117188 z M 2.9433594 3.1191406 L 4.3554688 4.53125 A 1.4999999 1.4999999 0 0 1 4.3535156 4.5332031 A 1.4999999 1.4999999 0 0 0 4.0058594 5.375 L 2.0117188 5.375 C 2.0428109 4.5012587 2.388833 3.7146264 2.9433594 3.1191406 z M 8.0566406 3.1191406 C 8.611167 3.7146264 8.9571891 4.5012587 8.9882812 5.375 L 6.9941406 5.375 A 1.4999999 1.4999999 0 0 0 6.6445312 4.53125 L 8.0566406 3.1191406 z M 2.0117188 5.625 L 4.0058594 5.625 A 1.4999999 1.4999999 0 0 0 4.3554688 6.46875 L 2.9433594 7.8808594 C 2.388833 7.2853736 2.0428109 6.4987413 2.0117188 5.625 z M 6.9941406 5.625 L 8.9882812 5.625 C 8.9571891 6.4987413 8.611167 7.2853736 8.0566406 7.8808594 L 6.6445312 6.46875 A 1.4999999 1.4999999 0 0 1 6.6464844 6.4667969 A 1.4999999 1.4999999 0 0 0 6.9941406 5.625 z M 4.53125 6.6445312 A 1.4999999 1.4999999 0 0 1 4.5332031 6.6464844 A 1.4999999 1.4999999 0 0 0 5 6.9121094 L 5 8.9511719 C 4.2764777 8.8475886 3.6278014 8.5303141 3.1191406 8.0566406 L 4.53125 6.6445312 z M 6.46875 6.6445312 L 7.8808594 8.0566406 C 7.3721986 8.5303141 6.7235223 8.8475886 6 8.9511719 L 6 6.9121094 A 1.4999999 1.4999999 0 0 0 6.46875 6.6445312 z "
     id="path5082" />
</svg>

<?xml version="1.0" encoding="utf-8"?>
<!-- Generator: Adobe Illustrator 19.2.1, SVG Export Plug-In . SVG Version: 6.00 Build 0)  -->
<!DOCTYPE svg PUBLIC "-//W3C//DTD SVG 1.1//EN" "http://www.w3.org/Graphics/SVG/1.1/DTD/svg11.dtd">
<svg version="1.1"
	 id="svg4619" inkscape:version="0.91 r13725" sodipodi:docname="amusement-park-11.svg" xmlns:cc="http://creativecommons.org/ns#" xmlns:dc="http://purl.org/dc/elements/1.1/" xmlns:inkscape="http://www.inkscape.org/namespaces/inkscape" xmlns:rdf="http://www.w3.org/1999/02/22-rdf-syntax-ns#" xmlns:sodipodi="http://sodipodi.sourceforge.net/DTD/sodipodi-0.dtd" xmlns:svg="http://www.w3.org/2000/svg"
	 xmlns="http://www.w3.org/2000/svg" xmlns:xlink="http://www.w3.org/1999/xlink" x="0px" y="0px" width="11px" height="11px"
	 viewBox="0 0 11 11" style="enable-background:new 0 0 11 11;" xml:space="preserve">
<path id="path5082" d="M5.5,1C3.0206,1,1,3.0206,1,5.5c0,1.7919,1.0627,3.3316,2.584,4.0547L2.5,11h6L7.416,9.5547
	C8.9373,8.8316,10,7.2919,10,5.5C10,3.0206,7.9794,1,5.5,1z M5.375,2.0117v1.9941c-0.3108,0.026-0.6057,0.1482-0.8438,0.3496
	L3.1191,2.9434C3.7146,2.3888,4.5013,2.0428,5.375,2.0117z M5.625,2.0117c0.8737,0.0311,1.6604,0.3771,2.2559,0.9316L6.4688,4.3555
	c-0.0007-0.0007-0.0013-0.0013-0.002-0.002C6.229,4.1532,5.9348,4.0317,5.625,4.0059V2.0117z M2.9434,3.1191l1.4121,1.4121
	c-0.0007,0.0007-0.0013,0.0013-0.002,0.002C4.1532,4.771,4.0317,5.0652,4.0059,5.375H2.0117
	C2.0428,4.5013,2.3888,3.7146,2.9434,3.1191z M8.0566,3.1191C8.6112,3.7146,8.9572,4.5013,8.9883,5.375H6.9941
	c-0.026-0.3108-0.1482-0.6057-0.3496-0.8438L8.0566,3.1191z M2.0117,5.625h1.9941c0.026,0.3108,0.1482,0.6057,0.3496,0.8438
	L2.9434,7.8809C2.3888,7.2854,2.0428,6.4987,2.0117,5.625z M6.9941,5.625h1.9941C8.9572,6.4987,8.6112,7.2854,8.0566,7.8809
	L6.6445,6.4688c0.0007-0.0007,0.0013-0.0013,0.002-0.002C6.8468,6.229,6.9683,5.9348,6.9941,5.625z M4.5312,6.6445
	c0.0007,0.0007,0.0013,0.0013,0.002,0.002C4.6716,6.7624,4.8297,6.8524,5,6.9121v2.0391C4.2765,8.8476,3.6278,8.5303,3.1191,8.0566
	L4.5312,6.6445z M6.4688,6.6445l1.4121,1.4121C7.3722,8.5303,6.7235,8.8476,6,8.9512V6.9121C6.1711,6.852,6.33,6.7613,6.4688,6.6445
	z"/>
</svg>
